X: 1
T: Pat-Joe's Slide
S: Donal Murphy (accordion) &amp; John Larkin (banjo), c.1990
R: slide
M: 12/8
Z: Transcribed by Paul de Grae
L: 1/8
K: A Dorian
e2 d |:
c2 B A2 G E2 A A2 G | E2 A A2 B c2 e dcB |
c2 B A2 G E2 A A2 B | c2 e dcB A3 A2 B :|
cBc dcd e2 a a2 g | e2 d e2 f g3 g2 B | cBc dcd e2 a a2 g |
e=fe d2 B B2 A A2 B | cBc dcd e2 a a2 g |
e2 d e2 f g3 g3 | a2 b a2 g efg d3 | efg f2 e a2 g ||
